assets/images/forward.svg

<?xml version="1.0" encoding="utf-8"?>
<!-- Generator: Adobe Illustrator 17.0.0, SVG Export Plug-In . SVG Version: 6.00 Build 0)  -->
<!DOCTYPE svg PUBLIC "-//W3C//DTD SVG 1.1//EN" "http://www.w3.org/Graphics/SVG/1.1/DTD/svg11.dtd">
<svg version="1.1" id="Capa_1" xmlns="http://www.w3.org/2000/svg" xmlns:xlink="http://www.w3.org/1999/xlink" x="0px" y="0px"
	 width="10px" height="6px" viewBox="0 0 10 6" enable-background="new 0 0 10 6" xml:space="preserve">
<title>dropdown</title>
<desc>Created with Sketch.</desc>
<g id="Page-1">
	<g id="gifOS_misguifos" transform="translate(-1184.000000, -83.000000)">
		<g id="nav-bar" transform="translate(1.000000, 1.000000)">
			<g id="dropdown_tema_normal" transform="translate(1038.000000, 67.000000)">
				
					<g id="dropdown" transform="translate(150.000000, 18.000000) rotate(-270.000000) translate(-150.000000, -18.000000) translate(147.000000, 13.000000)">
					<path id="back-copy" fill="#FFFFFF" d="M4,5v1H3v1H2v1H1v1H0V0h1v1h1v1h1v1h1v1h1v1H4z"/>
					<path id="Combined-Shape" fill="#110038" d="M1,9V8h1V7h1V6h1V5h2v1H5v1H4v1H3v1H2v1H1V9z"/>
				</g>
			</g>
		</g>
	</g>
</g>
</svg>

<?xml version="1.0" encoding="UTF-8"?>
<svg width="6px" height="10px" viewBox="0 0 6 10" version="1.1" xmlns="http://www.w3.org/2000/svg" xmlns:xlink="http://www.w3.org/1999/xlink">
    <!-- Generator: Sketch 54.1 (76490) - https://sketchapp.com -->
    <title>forward</title>
    <desc>Created with Sketch.</desc>
    <g id="Page-1" stroke="none" stroke-width="1" fill="none" fill-rule="evenodd">
        <g id="gifOS_captura_5_vista-previa" transform="translate(-432.000000, -717.000000)">
            <g id="item" transform="translate(265.000000, 208.000000)">
                <g id="preview-play" transform="translate(159.000000, 503.000000)">
                    <g id="forward" transform="translate(8.000000, 6.000000)">
                        <path d="M4,5 L4,6 L3,6 L3,7 L2,7 L2,8 L1,8 L1,9 L0,9 L0,0 L1,0 L1,1 L2,1 L2,2 L3,2 L3,3 L4,3 L4,4 L5,4 L5,5 L4,5 Z" id="back-copy" fill="#110038"></path>
                        <path d="M1,9 L1,8 L2,8 L2,7 L3,7 L3,6 L4,6 L4,5 L6,5 L6,6 L5,6 L5,7 L4,7 L4,8 L3,8 L3,9 L2,9 L2,10 L1,10 L1,9 Z" id="Combined-Shape" fill="#FFFFFF"></path>
                    </g>
                </g>
            </g>
        </g>
    </g>
</svg>
